src/assets/visibility.svg

<svg width="142" height="133" viewBox="0 0 142 133" fill="none" xmlns="http://www.w3.org/2000/svg">
<circle cx="71.5" cy="66.5" r="66.5" fill="#922630"/>
<g clip-path="url(#clip0_166_268)">
<path d="M85.7824 43.4724H82.8844C82.8844 38.2401 77.5613 34 70.9991 34C64.437 34 59.1138 38.2401 59.1138 43.4724H56.2158C50.2477 37.6389 42.0881 34.0298 33.0691 34.0298C14.8061 34.0298 0 48.7958 0 67.0149C0 85.234 14.8061 100 33.0691 100C42.197 100 50.4586 96.3103 56.4461 90.3488H85.5557C91.5396 96.312 99.8047 100 108.929 100C127.192 100 142 85.2323 142 67.0149C142 48.7975 127.192 34.0298 108.929 34.0298C99.9137 34.0298 91.7505 37.6389 85.7824 43.4741V43.4724ZM33.0691 95.6109C17.2349 95.6109 4.39702 82.8081 4.39702 67.0149C4.39702 51.2217 17.2349 38.4172 33.0691 38.4172C48.9033 38.4172 61.7394 51.22 61.7394 67.0131C61.7394 82.8063 48.9015 95.6091 33.0691 95.6091V95.6109ZM137.599 67.0131C137.599 82.8063 124.762 95.6074 108.929 95.6074C93.0967 95.6074 80.2589 82.8046 80.2589 67.0131C80.2589 51.2217 93.0932 38.4154 108.929 38.4154C124.765 38.4154 137.599 51.22 137.599 67.0114V67.0131Z" fill="#7C7C7C"/>
<path d="M4.39844 67.0147C4.39844 82.8079 17.2345 95.6107 33.0705 95.6107C48.9064 95.6107 61.7408 82.8079 61.7408 67.0147C61.7408 51.2215 48.9012 38.417 33.0687 38.417C17.2363 38.417 4.39844 51.2198 4.39844 67.0147ZM59.3929 67.0147C59.3929 81.516 47.6077 93.2706 33.0687 93.2706C18.5297 93.2706 6.74457 81.5143 6.74457 67.0147C6.74457 52.5152 18.528 40.757 33.0687 40.757C47.6095 40.757 59.3929 52.5134 59.3929 67.013V67.0147Z" fill="#F3FBF9"/>
<path d="M6.74609 67.015C6.74609 81.5163 18.5312 93.2709 33.0703 93.2709C47.6093 93.2709 59.3944 81.5145 59.3944 67.015C59.3944 52.5154 47.6093 40.7573 33.0703 40.7573C18.5312 40.7573 6.74609 52.5137 6.74609 67.015ZM49.5776 67.015C49.5776 76.1088 42.1842 83.4777 33.0703 83.4777C23.9564 83.4777 16.5612 76.1088 16.5612 67.015C16.5612 57.9212 23.9546 50.5505 33.0703 50.5505C42.1859 50.5505 49.5776 57.9212 49.5776 67.015Z" fill="#F3FBF9"/>
<path d="M16.5586 67.0148C16.5586 76.1086 23.952 83.4775 33.0676 83.4775C42.1833 83.4775 49.5749 76.1086 49.5749 67.0148C49.5749 57.921 42.1815 50.5503 33.0676 50.5503C23.9537 50.5503 16.5586 57.921 16.5586 67.0148ZM39.0674 67.0148C39.0674 70.3207 36.3839 73.0008 33.0676 73.0008C29.7514 73.0008 27.0644 70.3207 27.0644 67.0148C27.0644 63.7089 29.7497 61.0288 33.0676 61.0288C36.3856 61.0288 39.0674 63.7072 39.0674 67.0148ZM35.4647 53.6265C35.5965 53.8018 35.6282 54.0279 35.5614 54.233L34.753 56.6064C34.6669 56.8588 34.4367 57.0341 34.1678 57.0516C30.0115 57.2988 26.1487 59.3005 23.5583 62.545C23.3843 62.7624 23.0891 62.8483 22.8325 62.7606L20.4934 61.9701C20.1437 61.8509 19.9539 61.4688 20.0734 61.1165L20.1665 60.9429C23.5741 56.2225 29.0959 53.3811 34.9199 53.3478C35.1379 53.3478 35.3382 53.4513 35.4647 53.6265Z" fill="#4D7E9C"/>
<path d="M20.168 60.9413L20.0749 61.1148C19.9553 61.4671 20.1451 61.8493 20.4949 61.9685L22.834 62.759C23.0906 62.8484 23.3858 62.7607 23.5598 62.5434C26.1502 59.2989 30.013 57.2954 34.1692 57.05C34.4381 57.0324 34.6683 56.8571 34.7544 56.6047L35.5629 54.2314C35.6296 54.0263 35.5998 53.7984 35.4662 53.6249C35.3379 53.4496 35.1393 53.3462 34.9214 53.3462C29.0956 53.3795 23.5756 56.2209 20.168 60.9413Z" fill="#F3FBF9"/>
<path d="M27.0664 67.0148C27.0664 70.3207 29.7517 73.0008 33.0697 73.0008C36.3877 73.0008 39.0695 70.3207 39.0695 67.0148C39.0695 63.7089 36.3859 61.0288 33.0697 61.0288C29.7535 61.0288 27.0664 63.7072 27.0664 67.0148Z" fill="#F3FBF9"/>
<path d="M80.2578 67.0115C80.2578 82.8047 93.0939 95.6057 108.928 95.6057C124.762 95.6057 137.598 82.8029 137.598 67.0115C137.598 51.2201 124.761 38.4155 108.93 38.4155C93.0992 38.4155 80.2596 51.2201 80.2596 67.0115H80.2578ZM135.25 67.0115C135.25 81.5146 123.467 93.2674 108.93 93.2674C94.3926 93.2674 82.6022 81.5128 82.6022 67.0115C82.6022 52.5102 94.3873 40.7556 108.93 40.7556C123.472 40.7556 135.25 52.5119 135.25 67.0115Z" fill="#F3FBF9"/>
<path d="M82.6016 67.0113C82.6016 81.5144 94.3867 93.2672 108.929 93.2672C123.472 93.2672 135.25 81.5126 135.25 67.0113C135.25 52.51 123.466 40.7554 108.929 40.7554C94.392 40.7554 82.6016 52.5117 82.6016 67.0113ZM125.433 67.0113C125.433 76.1051 118.043 83.4758 108.927 83.4758C99.8118 83.4758 92.4167 76.1051 92.4167 67.0113C92.4167 57.9175 99.8101 50.5485 108.927 50.5485C118.045 50.5485 125.433 57.9193 125.433 67.0113Z" fill="#F3FBF9"/>
<path d="M92.418 67.0116C92.418 76.1054 99.8114 83.4761 108.929 83.4761C118.046 83.4761 125.434 76.1054 125.434 67.0116C125.434 57.9178 118.044 50.5488 108.929 50.5488C99.8131 50.5488 92.418 57.9196 92.418 67.0116ZM114.932 67.0116C114.932 70.3192 112.241 72.9993 108.929 72.9993C105.616 72.9993 102.924 70.3192 102.924 67.0116C102.924 63.704 105.614 61.0256 108.929 61.0256C112.243 61.0256 114.932 63.7057 114.932 67.0116ZM111.324 53.6233C111.456 53.7986 111.488 54.0282 111.419 54.2333L110.612 56.6067C110.526 56.8608 110.296 57.0326 110.027 57.0519C105.873 57.2973 102.005 59.299 99.4195 62.5453C99.2437 62.7627 98.9502 62.8468 98.6954 62.7574L96.3528 61.9669C96.0066 61.8494 95.815 61.4656 95.9345 61.115L96.0277 60.9397C99.4353 56.2193 104.952 53.3779 110.781 53.3429C110.999 53.3429 111.201 53.448 111.328 53.6233H111.324Z" fill="#4D7E9C"/>
<path d="M96.0233 60.9416L95.9302 61.1169C95.8107 61.4657 96.0022 61.8495 96.3484 61.9687L98.691 62.7593C98.9459 62.8487 99.2394 62.7628 99.4151 62.5472C102 59.3009 105.868 57.2974 110.023 57.0538C110.292 57.0345 110.522 56.8609 110.608 56.6085L111.415 54.2352C111.483 54.0301 111.452 53.8005 111.32 53.6252C111.193 53.4517 110.991 53.3447 110.773 53.3447C104.944 53.3798 99.4274 56.2212 96.0198 60.9416H96.0233Z" fill="#F3FBF9"/>
<path d="M102.926 67.0114C102.926 70.319 105.616 72.9991 108.931 72.9991C112.245 72.9991 114.934 70.319 114.934 67.0114C114.934 63.7037 112.244 61.0254 108.931 61.0254C105.618 61.0254 102.926 63.7055 102.926 67.0114Z" fill="#F3FBF9"/>
</g>
<defs>
<clipPath id="clip0_166_268">
<rect width="142" height="66" fill="white" transform="translate(0 34)"/>
</clipPath>
</defs>
</svg>

<svg width="142" height="133" fill="none" xmlns="http://www.w3.org/2000/svg"><circle cx="71.5" cy="66.5" r="66.5" fill="#922630"/><g clip-path="url(#a)"><path d="M85.782 43.472h-2.898C82.884 38.24 77.561 34 71 34c-6.562 0-11.885 4.24-11.885 9.472h-2.898c-5.968-5.833-14.128-9.442-23.147-9.442C14.806 34.03 0 48.796 0 67.015S14.806 100 33.07 100c9.127 0 17.389-3.69 23.376-9.651h29.11A33.013 33.013 0 0 0 108.929 100C127.192 100 142 85.232 142 67.015c0-18.218-14.808-32.985-33.071-32.985-9.015 0-17.178 3.609-23.147 9.444v-.002ZM33.07 95.611c-15.834 0-28.672-12.803-28.672-28.596s12.838-28.598 28.672-28.598c15.834 0 28.67 12.803 28.67 28.596S48.902 95.61 33.07 95.61v.002ZM137.6 67.013c0 15.793-12.837 28.594-28.67 28.594-15.832 0-28.67-12.802-28.67-28.594 0-15.791 12.834-28.598 28.67-28.598 15.836 0 28.67 12.805 28.67 28.596v.002Z" fill="#7C7C7C"/><path d="M4.398 67.015c0 15.793 12.837 28.596 28.673 28.596 15.835 0 28.67-12.803 28.67-28.596 0-15.794-12.84-28.598-28.672-28.598-15.833 0-28.67 12.803-28.67 28.598Zm54.995 0c0 14.501-11.785 26.256-26.324 26.256-14.54 0-26.324-11.757-26.324-26.256 0-14.5 11.783-26.258 26.324-26.258 14.54 0 26.324 11.756 26.324 26.256v.002Z" fill="#F3FBF9"/><path d="M6.746 67.015c0 14.501 11.785 26.256 26.324 26.256 14.54 0 26.324-11.757 26.324-26.256 0-14.5-11.785-26.258-26.324-26.258-14.539 0-26.324 11.757-26.324 26.258Zm42.832 0c0 9.094-7.394 16.463-16.508 16.463-9.114 0-16.509-7.37-16.509-16.463 0-9.094 7.394-16.465 16.51-16.465 9.115 0 16.507 7.371 16.507 16.465Z" fill="#F3FBF9"/><path d="M16.559 67.015c0 9.094 7.393 16.463 16.509 16.463 9.115 0 16.507-7.37 16.507-16.463 0-9.094-7.394-16.465-16.507-16.465-9.114 0-16.51 7.371-16.51 16.465Zm22.508 0c0 3.306-2.683 5.986-6 5.986-3.316 0-6.003-2.68-6.003-5.986 0-3.306 2.686-5.986 6.004-5.986 3.318 0 6 2.678 6 5.986Zm-3.602-13.389a.664.664 0 0 1 .096.607l-.808 2.373a.661.661 0 0 1-.585.446 14.704 14.704 0 0 0-10.61 5.493.664.664 0 0 1-.726.216l-2.339-.79a.674.674 0 0 1-.42-.854l.093-.174a18.394 18.394 0 0 1 14.754-7.595c.218 0 .418.103.545.279Z" fill="#4D7E9C"/><path d="m20.168 60.941-.093.174c-.12.352.07.734.42.853l2.339.791c.257.09.552.002.726-.216a14.698 14.698 0 0 1 10.61-5.493.662.662 0 0 0 .584-.445l.809-2.374a.658.658 0 0 0-.097-.606.671.671 0 0 0-.545-.279 18.391 18.391 0 0 0-14.753 7.595ZM27.066 67.015c0 3.306 2.686 5.986 6.004 5.986 3.318 0 6-2.68 6-5.986 0-3.306-2.684-5.986-6-5.986-3.317 0-6.004 2.678-6.004 5.986ZM80.258 67.011c0 15.794 12.836 28.595 28.67 28.595 15.834 0 28.67-12.803 28.67-28.594 0-15.792-12.837-28.596-28.668-28.596-15.83 0-28.67 12.804-28.67 28.596h-.002Zm54.992 0c0 14.504-11.783 26.256-26.32 26.256S82.602 81.513 82.602 67.012c0-14.502 11.785-26.256 26.328-26.256 14.542 0 26.32 11.756 26.32 26.255Z" fill="#F3FBF9"/><path d="M82.602 67.011c0 14.503 11.785 26.256 26.327 26.256 14.543 0 26.321-11.754 26.321-26.256 0-14.501-11.784-26.256-26.321-26.256S82.602 52.512 82.602 67.011Zm42.831 0c0 9.094-7.39 16.465-16.506 16.465-9.115 0-16.51-7.37-16.51-16.465 0-9.093 7.393-16.462 16.51-16.462 9.118 0 16.506 7.37 16.506 16.462Z" fill="#F3FBF9"/><path d="M92.418 67.012c0 9.093 7.393 16.464 16.511 16.464 9.117 0 16.505-7.37 16.505-16.464 0-9.094-7.39-16.463-16.505-16.463-9.116 0-16.511 7.37-16.511 16.463Zm22.514 0c0 3.307-2.691 5.987-6.003 5.987-3.313 0-6.005-2.68-6.005-5.987 0-3.308 2.69-5.986 6.005-5.986 3.314 0 6.003 2.68 6.003 5.986Zm-3.608-13.389a.663.663 0 0 1 .095.61l-.807 2.374a.661.661 0 0 1-.585.445 14.682 14.682 0 0 0-10.608 5.493.659.659 0 0 1-.724.212l-2.342-.79a.674.674 0 0 1-.418-.852l.093-.175a18.393 18.393 0 0 1 14.753-7.597c.218 0 .42.105.547.28h-.004Z" fill="#4D7E9C"/><path d="m96.023 60.942-.093.175a.675.675 0 0 0 .418.852l2.343.79c.255.09.548.004.724-.212a14.674 14.674 0 0 1 10.608-5.493.664.664 0 0 0 .585-.446l.807-2.373a.68.68 0 0 0-.642-.89 18.393 18.393 0 0 0-14.753 7.597h.003ZM102.926 67.011c0 3.308 2.69 5.988 6.005 5.988 3.314 0 6.003-2.68 6.003-5.988 0-3.307-2.69-5.986-6.003-5.986s-6.005 2.68-6.005 5.986Z" fill="#F3FBF9"/></g><defs><clipPath id="a"><path fill="#fff" transform="translate(0 34)" d="M0 0h142v66H0z"/></clipPath></defs></svg>
